!!!COM: Bach, Johann Sebastian
!!!CDT: 1685/3//-1750/7/28/
!!!OTL@@DE: Herr Christ, der ein'ge Gott's Sohn
!!!AGN: 4-Part Chorale
!!!SCT: BH 303
!!!SCT: BWV 96
**harm	**root	**kern	**kern	**kern	**kern
!	!	!bass	!tenor	!alto	!soprno
*	*Iorgan	*Iorgan	*Iorgan	*Iorgan	*Iorgan
*M4/4	*M4/4	*M4/4	*M4/4	*M4/4	*M4/4
*met(c)	*met(c)	*met(c)	*met(c)	*met(c)	*met(c)
*MM60	*MM60	*MM60	*MM60	*MM60	*MM60
*k[f#c#g#]	*k[f#c#g#]	*k[f#c#g#]	*k[f#c#g#]	*k[f#c#g#]	*k[f#c#g#]
*A:	*A:	*A:	*A:	*A:	*A:
*>[A,A,B]	*>[A,A,B]	*>[A,A,B]	*>[A,A,B]	*>[A,A,B]	*>[A,A,B]
*>A	*>A	*>A	*>A	*>A	*>A
I	4FF	4A	4c#	4e	4a
=1	=1	=1	=1	=1	=1
IV	4BB-	4D	4d	8f#	8a
.	.	.	.	8g#	8b
I	4FF	4A	4e	4a	4cc#
V	4CC	4E	8e	4g#	4b
.	.	.	8d	.	.
vi	4DD	4F#	4c#	4f#	4a
=2	=2	=2	=2	=2	=2
vii7b	4EE	4BB	4d	4f#	2g#
V/vi	4AA	4C#	8c#	4e#	.
.	.	.	8B	.	.
vi;	4DD;	4F#;	4A;	4c#;	4f#;
V/ii	4DD	4F#	4f#	4a#	4cc#
=3	=3	=3	=3	=3	=3
ii	4GG	8B	4f#	8b	4dd
.	.	8c#	.	8a	.
V7d	4CC	4d	4e	4g#	4b
I	4FF	8c#	4e	4a	4cc#
.	.	8A	.	.	.
V	4CC	4E	8e	4g#	4b
.	.	.	8d	.	.
=4	=4	=4	=4	=4	=4
I;	2.FF;	2.AA;	2.c#;	2.e;	2.a;
=:|!	=:|!	=:|!	=:|!	=:|!	=:|!
*>B	*>B	*>B	*>B	*>B	*>B
I	4FF	8A	4c#	4e	8a
.	.	8G#	.	.	8b
=5	=5	=5	=5	=5	=5
vi	4DD	4F#	4f#	4a	4cc#
V7d/ii	4DD	4E	4f#	4a#	4cc#
iib	4GG	8D	4f#	4b	4dd
.	.	8C#	.	.	.
ii	4GG	4BB	4f#	4b	4dd
!!linebreak: 2
=6	=6	=6	=6	=6	=6
Ib	2FF	4.C#	2e	4b	2ee
.	.	.	.	4a	.
.	.	8D	.	.	.
V;	4CC;	4E;	4e;	4g#;	4b;
Vb	4CC	4G#	4e	4b	4ee
=7	=7	=7	=7	=7	=7
I	4FF	4A	4e	4a	4cc#
viioD7/ii	4FF#	4A#	4e	4g	4cc#
ii	4GG	4B	4d	4f#	4b
viioD7/iii	4GG#	4B#	4d#	4f#	4a
=8	=8	=8	=8	=8	=8
iii	4AA	4c#	8G#	4f#	2g#
.	.	.	8A	.	.
V7/vi	4AA	4C#	4B	4e#	.
IV;	4BB-;	4D;	4A;	4f#;	4f#;
viib/ii	4FF#	4C#	4e	4a#	4cc#
=9	=9	=9	=9	=9	=9
ii	4GG	8BB	4f#	8b	4dd
.	.	8C#	.	8a	.
V7d	4CC	4D	4e	4g#	4b
Ib	4FF	8C#	4e	4a	4cc#
.	.	8D	.	.	.
V	4CC	4E	8e	4g#	4b
.	.	.	8d	.	.
=10	=10	=10	=10	=10	=10
I;	2.FF;	2.AA;	2.c#;	2.e;	2.a;
==	==	==	==	==	==
*-	*-	*-	*-	*-	*-
!!chor2scor: -l 2 -s 0.6 -o %b.pmx
!!!YEC: Copyright 1994, David Huron
!!!YEC: Changes/Additions 2001 by Craig Stuart Sapp
!!!YEN: United States of America
!!!SMA: 371 Bach Chorales, edited by Ludwig Erk, C.F. Peters
!!!PDT: 1850, 1865
!!!ONB: Harmony and Root analysis done manually
